X:148
T:Planxty Joey Hawkins
R:planxty
C:2010 L.E. McCullough
M:3/4
L:1/8
K:G
GA||:B3G dG|A4 GF|G3B AG|E4-EG|
E3D GA|BG d3B|A3B  AG|A4 GA|
B3G dG|A4 GF|GB d3g|e4-ed|
cB A3G|AD B3A|G3A GF|1G4 GA:|2G4 AB||
c3B dc|BA G2 A2|F2 G2 (3AGF|G4 AB|
cB d3G|eG g3g|fg a3f|g4 fe|
dG g3e|dG B3B|cd ec de|dB G3B
c3d BA|(3Bcd G2 d2|e3d BG|A4 GA|
B3G dG|A4 GF|GB d3g|e4-eg|
ed B3G|AF d3F|G3A GF|G6||

